X:66
T:Strange's Hornpipe. ThoH.066
Q:1/2=90
M:C|
L:1/8
B:Thompson's Compleat Collection of 120 Favourite Hornpipes.
Z:Village Music Project, Simon Wilson 2016
O:England.
K:Bb
G4d4|cBAG ^FAc2-|cedcB2AG|A2G^FG2G,2|
B4{g}f4|edcB Ace2-|egfe {e}d2cB|{d}c2BAB2B,2:|
|:def2-fedc|d2F2-F_AGF|=EGc2edc=B|c4C4|
cde2-edcB|c2E2-EGFE|DFB2dcBA|B4B,4|
dcde dbdb|cBcd caca|BABc Bede|AGAB Adcd|
GBed cBAG|^FAc2-cedc|{c}B2AG{B}A2G^F|G4G,4:|

